X:1
T:R. R. Chope
T:St. Lambert
%%score { ( 1 2 ) | ( 3 4 ) }
L:1/8
Q:1/4=184
M:4/2
K:E
V:1 treble 
V:2 treble 
V:3 bass 
V:4 bass 
V:1
"^Presto" G4 G4 F4 A4 | A8 G8 | B4 B4 A4 B4 | G16 | B4 B4 c4 d4 | e8 B8 | G4 G4 F4 F4 | E16 | %8
 E8 E8 |] %9
V:2
 E4 E4 E4 D4 | E8 E8 | E4 E4 E4 D4 | E16 | E4 E4 A4 F4 | E8 E8 | E4 E4 E4 D4 | E16 | C8 B,8 |] %9
V:3
 B,4 C4 C4 B,4 | B,8 B,8 | B,4 B,4 C4 B,4 | B,16 | B,4 B,4 A,4 A,4 | (G,4 A,4) B,8 | %6
 C4 B,4 C4 (B,2 A,2) | G,16 | A,8 G,8 |] %9
V:4
 E,4 C,4 A,,4 B,,4 | E,8 E,8 | G,4 G,4 F,4 B,,4 | E,16 | G,4 G,4 F,4 B,,4 | C,8 G,,8 | %6
 C,4 G,,4 A,,4 B,,4 | E,16 | A,,8 E,8 |] %9

